X: 1060
T:Up In The Woods
C:John Reischman's Break
L:1/8
Q:1/8=480
M:4/4
K:G
[DG,][DG,][D2G,2] [E2G,2]|"G"[EG,][GG,][GG,][GG,] [GG,][GG,][G2G,2]|\
^ABBB B=AG2|Bddd d2eg|"C"e2fg gfed|!
"G"B2dd d2A^A|BddB GABG|"D"AG[AA][AA] [A2A2][A2G2]|\
[A2F2][DG,][DG,] [D2G,2][E2G,2]|!
"G"[EG,][GG,]GG [EG,][GG,]GG|^ABGG ABGG|^ABdd ddeg|"C"e2fg ggfe|!
"G"dBdB AGAB|"D"GABc BcBA|"G"FGFG BABA|FGGf ggef|!
"Em"gez[eB] z[eB][eB][eB]|"C"[fB][gc][gc][gc] [gc][fc]ed|\
"G"B2d2 dddd|d2ef gfgf|!
"Em"edBd BAGA|"C"cBcd efge|"D"faeg dAcB|ABAF DFDF|!
"G"[D2G,2][^AFG,][BGG,] [BGG,][BGG,][=A2D2G,2]|\
[BGG,][dB][dB][dB] [gd][gd][gd][gd]|\
[bg][bg][bg][bg] [bg][bg][bg][bg]|"C"[c'g][c'g][c'g][c'g] [c'2g2]ga|!
"G"bgdg eage|"D"fafd e=f^fa|"G"g2dc ^AB=AB|G2GG G4|!

